X:144
M:C|
L:1/8
K:D
g|f<d d>f g>ef>d|e/e/e f>d g>e=c>e|f<d d>f g>ef>d|e/e/e e/e/e f<d d>g|
f<d d>f g>ef>d|e>df>d g>e=c>g|f<ae<f d>ef>d|A<F f>g fdd||

